X: 1
T: Mouse In The Kitchen
C: Colin Farrell
R: Jig
M: 6/8
L: 1/8
K: Amaj
|:c3 cde|dcA F2A|E3 EFA|B3 BAB|
c3 cde|dcA F2a|afe fec| Bce A3:|
|:B3 BAB|c3 cBA|B3 BAB|cea aec|
B3 BAB|c3 cBA|afe fec|Bce A3:|
